Origami/16x16/apps/firewall-config.svg

<svg width="16" height="16" version="1" xmlns="http://www.w3.org/2000/svg">
 <path d="M 1.75,1 C 0.76389735,1 0,1.8524693 0,2.7988281 L 0,5.2011719 C 0,5.7508314 0.29777236,6.2052887 0.70703125,6.5429688 0.29006274,6.9115944 0,7.4099666 0,8 L 0,9 C 0,9.5900334 0.29006274,10.088406 0.70703125,10.457031 0.29777235,10.794711 0,11.249169 0,11.798828 l 0,2.402344 C 0,15.147531 0.76389751,16 1.75,16 l 4.5,0 C 6.7484741,16 7.1850562,15.779083 7.5,15.441406 7.8149438,15.779083 8.2515259,16 8.75,16 l 4.5,0 C 14.236102,16 15,15.147531 15,14.201172 l 0,-2.402344 C 15,11.249169 14.702228,10.794711 14.292969,10.457031 14.709937,10.088406 15,9.5900334 15,9 L 15,8 C 15,7.4099666 14.709937,6.9115944 14.292969,6.5429688 14.702228,6.2052887 15,5.7508314 15,5.2011719 L 15,2.7988281 C 15,1.8524693 14.236103,1 13.25,1 L 8.75,1 C 8.2515258,1 7.8149438,1.2209174 7.5,1.5585938 7.1850562,1.2209174 6.7484742,1 6.25,1 Z" style="fill:#4f4f4f"/>
 <path d="m1.75 2c-0.4155 0-0.75 0.3556281-0.75 0.7988281v2.4023438c0 0.4432 0.3345 0.7988281 0.75 0.7988281h4.5c0.4155 0 0.75-0.3556281 0.75-0.7988281v-2.4023438c0-0.4432-0.3345-0.7988281-0.75-0.7988281h-4.5zm7 0c-0.4155 0-0.75 0.3556281-0.75 0.7988281v2.4023438c0 0.4432 0.3345 0.7988281 0.75 0.7988281h4.5c0.4155 0 0.75-0.3556281 0.75-0.7988281v-2.4023438c0-0.4432-0.3345-0.7988281-0.75-0.7988281h-4.5zm-6.75 5c-0.554 0-1 0.446-1 1v1c0 0.554 0.446 1 1 1h1c0.554 0 1-0.446 1-1v-1c0-0.554-0.446-1-1-1h-1zm3.625 0c-0.34625 0-0.625 0.2672094-0.625 0.5996094v1.8007812c0 0.3324 0.27875 0.5996094 0.625 0.5996094h3.75c0.34625 0 0.625-0.2672094 0.625-0.5996094v-1.8007812c0-0.3324-0.27875-0.5996094-0.625-0.5996094h-3.75zm6.375 0c-0.554 0-1 0.446-1 1v1c0 0.554 0.446 1 1 1h1c0.554 0 1-0.446 1-1v-1c0-0.554-0.446-1-1-1h-1zm-10.25 4c-0.4155 0-0.75 0.355628-0.75 0.798828v2.402344c0 0.4432 0.3345 0.798828 0.75 0.798828h4.5c0.4155 0 0.75-0.355628 0.75-0.798828v-2.402344c0-0.4432-0.3345-0.798828-0.75-0.798828h-4.5zm7 0c-0.4155 0-0.75 0.355628-0.75 0.798828v2.402344c0 0.4432 0.3345 0.798828 0.75 0.798828h4.5c0.4155 0 0.75-0.355628 0.75-0.798828v-2.402344c0-0.4432-0.3345-0.798828-0.75-0.798828h-4.5z" style="fill:#f45c49"/>
</svg>

<svg xmlns="http://www.w3.org/2000/svg" width="16" height="16" version="1">
 <path style="fill:#4f4f4f" d="M 1.75,1 C 0.76389735,1 0,1.8524693 0,2.7988281 L 0,5.2011719 C 0,5.7508314 0.29777236,6.2052887 0.70703125,6.5429688 0.29006274,6.9115944 0,7.4099666 0,8 L 0,9 C 0,9.5900334 0.29006274,10.088406 0.70703125,10.457031 0.29777235,10.794711 0,11.249169 0,11.798828 l 0,2.402344 C 0,15.147531 0.76389751,16 1.75,16 l 4.5,0 C 6.7484741,16 7.1850562,15.779083 7.5,15.441406 7.8149438,15.779083 8.2515259,16 8.75,16 l 4.5,0 C 14.236102,16 15,15.147531 15,14.201172 l 0,-2.402344 C 15,11.249169 14.702228,10.794711 14.292969,10.457031 14.709937,10.088406 15,9.5900334 15,9 L 15,8 C 15,7.4099666 14.709937,6.9115944 14.292969,6.5429688 14.702228,6.2052887 15,5.7508314 15,5.2011719 L 15,2.7988281 C 15,1.8524693 14.236103,1 13.25,1 L 8.75,1 C 8.2515258,1 7.8149438,1.2209174 7.5,1.5585938 7.1850562,1.2209174 6.7484742,1 6.25,1 Z"/>
 <path style="fill:#f45c49" d="M 1.75,2 C 1.3345,2 1,2.3556281 1,2.7988281 L 1,5.2011719 C 1,5.6443719 1.3345,6 1.75,6 l 4.5,0 C 6.6655,6 7,5.6443719 7,5.2011719 L 7,2.7988281 C 7,2.3556281 6.6655,2 6.25,2 l -4.5,0 z m 7,0 C 8.3345,2 8,2.3556281 8,2.7988281 L 8,5.2011719 C 8,5.6443719 8.3345,6 8.75,6 l 4.5,0 C 13.6655,6 14,5.6443719 14,5.2011719 L 14,2.7988281 C 14,2.3556281 13.6655,2 13.25,2 L 8.75,2 Z M 2,7 C 1.446,7 1,7.446 1,8 l 0,1 c 0,0.554 0.446,1 1,1 l 1,0 C 3.554,10 4,9.554 4,9 L 4,8 C 4,7.446 3.554,7 3,7 L 2,7 Z M 5.625,7 C 5.27875,7 5,7.2672094 5,7.5996094 L 5,9.4003906 C 5,9.7327906 5.27875,10 5.625,10 l 3.75,0 C 9.72125,10 10,9.7327906 10,9.4003906 L 10,7.5996094 C 10,7.2672094 9.72125,7 9.375,7 L 5.625,7 Z M 12,7 c -0.554,0 -1,0.446 -1,1 l 0,1 c 0,0.554 0.446,1 1,1 l 1,0 c 0.554,0 1,-0.446 1,-1 L 14,8 C 14,7.446 13.554,7 13,7 L 12,7 Z M 1.75,11 C 1.3345,11 1,11.355628 1,11.798828 l 0,2.402344 C 1,14.644372 1.3345,15 1.75,15 l 4.5,0 C 6.6655,15 7,14.644372 7,14.201172 L 7,11.798828 C 7,11.355628 6.6655,11 6.25,11 l -4.5,0 z m 7,0 C 8.3345,11 8,11.355628 8,11.798828 l 0,2.402344 C 8,14.644372 8.3345,15 8.75,15 l 4.5,0 C 13.6655,15 14,14.644372 14,14.201172 l 0,-2.402344 C 14,11.355628 13.6655,11 13.25,11 l -4.5,0 z"/>
</svg>
